actions/24/system-lock-screen.svg

<?xml version="1.0" encoding="UTF-8" standalone="no"?>
<!-- Created with Inkscape (http://www.inkscape.org/) -->

<svg
   xmlns:dc="http://purl.org/dc/elements/1.1/"
   xmlns:cc="http://creativecommons.org/ns#"
   xmlns:rdf="http://www.w3.org/1999/02/22-rdf-syntax-ns#"
   xmlns:svg="http://www.w3.org/2000/svg"
   xmlns="http://www.w3.org/2000/svg"
   xmlns:xlink="http://www.w3.org/1999/xlink"
   xmlns:inkscape="http://www.inkscape.org/namespaces/inkscape"
   version="1.0"
   width="24"
   height="24"
   id="svg3291">
  <metadata
     id="metadata44">
    <rdf:RDF>
      <cc:Work
         rdf:about="">
        <dc:format>image/svg+xml</dc:format>
        <dc:type
           rdf:resource="http://purl.org/dc/dcmitype/StillImage" />
      </cc:Work>
    </rdf:RDF>
  </metadata>
  <defs
     id="defs3293">
    <linearGradient
       id="linearGradient10691-1">
      <stop
         id="stop10693-3"
         style="stop-color:#000000;stop-opacity:1"
         offset="0" />
      <stop
         id="stop10695-1"
         style="stop-color:#000000;stop-opacity:0"
         offset="1" />
    </linearGradient>
    <radialGradient
       cx="6.702713"
       cy="73.615715"
       r="7.228416"
       fx="6.702713"
       fy="73.615715"
       id="radialGradient2503"
       xlink:href="#linearGradient10691-1"
       gradientUnits="userSpaceOnUse"
       gradientTransform="matrix(0.9684004,0,0,0.2075143,5.509091,7.223683)" />
    <linearGradient
       id="linearGradient3924">
      <stop
         id="stop3926"
         style="stop-color:#464646;stop-opacity:1"
         offset="0" />
      <stop
         id="stop3928"
         style="stop-color:#8c8c8c;stop-opacity:1"
         offset="0.35046947" />
      <stop
         id="stop3930"
         style="stop-color:#969696;stop-opacity:1"
         offset="0.50989443" />
      <stop
         id="stop3932"
         style="stop-color:#aaaaaa;stop-opacity:1"
         offset="0.61998242" />
      <stop
         id="stop3934"
         style="stop-color:#646464;stop-opacity:1"
         offset="1" />
    </linearGradient>
    <linearGradient
       x1="61.968769"
       y1="35.944077"
       x2="61.968769"
       y2="43.378311"
       id="linearGradient2500"
       xlink:href="#linearGradient3924"
       gradientUnits="userSpaceOnUse"
       gradientTransform="matrix(0.5790465,0,0,0.6062555,-23.900882,-3.8712552)" />
    <linearGradient
       id="linearGradient3912">
      <stop
         id="stop3914"
         style="stop-color:#787878;stop-opacity:1"
         offset="0" />
      <stop
         id="stop3916"
         style="stop-color:#bebebe;stop-opacity:1"
         offset="0.35046947" />
      <stop
         id="stop3918"
         style="stop-color:#c8c8c8;stop-opacity:1"
         offset="0.49417919" />
      <stop
         id="stop3920"
         style="stop-color:#e6e6e6;stop-opacity:1"
         offset="0.58907253" />
      <stop
         id="stop3922"
         style="stop-color:#8c8c8c;stop-opacity:1"
         offset="1" />
    </linearGradient>
    <linearGradient
       x1="361.10583"
       y1="87.050117"
       x2="361.10583"
       y2="94.396416"
       id="linearGradient2498"
       xlink:href="#linearGradient3912"
       gradientUnits="userSpaceOnUse"
       gradientTransform="matrix(0.5769671,0,0,0.6063427,-194.65125,-34.797997)" />
    <linearGradient
       id="linearGradient3342">
      <stop
         id="stop3344"
         style="stop-color:#ffffff;stop-opacity:0"
         offset="0" />
      <stop
         id="stop3346"
         style="stop-color:#ffffff;stop-opacity:1"
         offset="1" />
    </linearGradient>
    <linearGradient
       x1="15.573899"
       y1="46.971004"
       x2="23.578077"
       y2="46.971004"
       id="linearGradient2495"
       xlink:href="#linearGradient3342"
       gradientUnits="userSpaceOnUse"
       gradientTransform="matrix(0.6041001,0,0,0.4850453,-2.2435196,-1.2830676)"
       spreadMethod="reflect" />
    <linearGradient
       id="linearGradient2327">
      <stop
         id="stop2329"
         style="stop-color:#ffffff;stop-opacity:1"
         offset="0" />
      <stop
         id="stop2331"
         style="stop-color:#cccccc;stop-opacity:1"
         offset="1" />
    </linearGradient>
    <radialGradient
       cx="12.244348"
       cy="4.8630676"
       r="20.999998"
       fx="12.244348"
       fy="4.8630676"
       id="radialGradient2491"
       xlink:href="#linearGradient2327"
       gradientUnits="userSpaceOnUse"
       gradientTransform="matrix(0.6746493,0.00928159,-0.00628149,0.5188398,-1.9645574,3.278161)" />
    <linearGradient
       id="linearGradient6592-2-7">
      <stop
         id="stop6594-0-2"
         style="stop-color:#ffffff;stop-opacity:0.27450982"
         offset="0" />
      <stop
         id="stop6596-2-5"
         style="stop-color:#ffffff;stop-opacity:0"
         offset="1" />
    </linearGradient>
    <linearGradient
       x1="12.9375"
       y1="8.4375"
       x2="15.25"
       y2="19.8125"
       id="linearGradient2488"
       xlink:href="#linearGradient6592-2-7"
       gradientUnits="userSpaceOnUse"
       gradientTransform="matrix(0.5238096,0,0,0.6666661,-0.5714286,1.4e-6)" />
  </defs>
  <g
     id="layer1">
    <path
       d="M 19,22.500001 C 19,23.328428 15.865993,24 11.999999,24 8.1340066,24 5,23.328428 5,22.500001 5,21.671573 8.1340066,21 11.999999,21 15.865993,21 19,21.671573 19,22.500001 l 0,0 z"
       inkscape:connector-curvature="0"
       id="path2589"
       style="opacity:0.3;fill:url(#radialGradient2503);fill-opacity:1;fill-rule:nonzero;stroke:none;stroke-width:0.80000001;marker:none;visibility:visible;display:inline;overflow:visible" />
    <path
       d="m 8.5,17.499134 c 0,0 0.2272727,2.146045 0,2.500866 -0.3925362,0.612833 -1.6072079,0.5 -1.6072079,0.5 -0.5228141,0.06321 -0.527139,2.000859 0,2.000859 l 10.2143739,0 c 0.527139,0 0.522923,-1.938456 0,-2.000859 0,0 -1.171508,0.08298 -1.607166,-0.5 -0.245811,-0.328936 0,-2.500866 0,-2.500866 l -7,0 0,0 z"
       inkscape:connector-curvature="0"
       id="rect1789"
       style="fill:url(#linearGradient2498);fill-opacity:1;fill-rule:nonzero;stroke:url(#linearGradient2500);stroke-width:0.99827474;stroke-linecap:round;stroke-linejoin:round;stroke-miterlimit:4;stroke-opacity:1;stroke-dasharray:none;stroke-dashoffset:0.50000001;marker:none;visibility:visible;display:inline;overflow:visible;enable-background:new" />
    <path
       d="m 7.4667247,21.5 9.0665503,0"
       inkscape:connector-curvature="0"
       id="path3340"
       style="fill:none;stroke:url(#linearGradient2495);stroke-width:1px;stroke-linecap:square;stroke-linejoin:miter;stroke-opacity:1" />
    <rect
       width="22.999796"
       height="15.999761"
       rx="0.51110935"
       ry="0.48484477"
       x="0.50010204"
       y="1.5001202"
       id="rect2722"
       style="fill:#1a1a1a;fill-opacity:1;stroke:#000000;stroke-width:1.00023937;stroke-linecap:round;stroke-linejoin:round;stroke-miterlimit:4;stroke-opacity:1;stroke-dasharray:none;stroke-dashoffset:0.50000001" />
    <rect
       width="20"
       height="13"
       x="2"
       y="3"
       id="rect2716"
       style="fill:url(#radialGradient2491);fill-opacity:1;fill-rule:evenodd;stroke:none;display:inline;enable-background:new" />
    <path
       d="M 0.99999996,2 23,2 23,7.333336 0.99999996,12 l 0,-10 z"
       inkscape:connector-curvature="0"
       id="rect6588"
       style="fill:url(#linearGradient2488);fill-opacity:1;stroke:none" />
    <path
       d="M 11.750002,5.0148104 C 10.036141,5.0698682 8.900003,5.9149003 8.900003,7.657846 l 0,1.365887 -0.385718,0 C 8.231276,9.023733 8,9.22361 8,9.473921 l 0,4.075891 C 8,13.800124 8.231276,14.000001 8.514285,14 l 6.978569,0 C 15.775868,14 16,13.800124 16,13.549812 L 16,9.473921 C 16,9.22361 15.775868,9.023733 15.492854,9.023733 l -0.392858,0 0.0071,-1.336842 c 0,-1.8501761 -1.233343,-2.6492451 -3.099997,-2.6720806 -0.08703,-0.00107 -0.172854,-0.00271 -0.257142,0 z m 0.171427,1.1690341 c 0.03152,-7.277e-4 0.06741,0 0.1,0 2.071092,0 1.912273,1.5104195 1.942856,1.9604955 l 0,0.879393 -3.9,0 0,-0.872133 C 10.056933,7.705098 9.935997,6.2297713 11.921429,6.1838445 z"
       inkscape:connector-curvature="0"
       id="path2086"
       style="opacity:0.69886361;fill:#888a85;fill-opacity:1;fill-rule:nonzero;stroke:none;stroke-width:1;marker:none;visibility:visible;display:block;overflow:visible" />
  </g>
</svg>

<?xml version="1.0" encoding="UTF-8" standalone="no"?>
<!-- Created with Inkscape (http://www.inkscape.org/) -->
<svg
   xmlns:svg="http://www.w3.org/2000/svg"
   xmlns="http://www.w3.org/2000/svg"
   xmlns:xlink="http://www.w3.org/1999/xlink"
   version="1.0"
   width="24"
   height="24"
   id="svg3291">
  <defs
     id="defs3293">
    <linearGradient
       id="linearGradient10691-1">
      <stop
         id="stop10693-3"
         style="stop-color:#000000;stop-opacity:1"
         offset="0" />
      <stop
         id="stop10695-1"
         style="stop-color:#000000;stop-opacity:0"
         offset="1" />
    </linearGradient>
    <radialGradient
       cx="6.702713"
       cy="73.615715"
       r="7.228416"
       fx="6.702713"
       fy="73.615715"
       id="radialGradient2503"
       xlink:href="#linearGradient10691-1"
       gradientUnits="userSpaceOnUse"
       gradientTransform="matrix(0.9684004,0,0,0.2075143,5.509091,7.223683)" />
    <linearGradient
       id="linearGradient3924">
      <stop
         id="stop3926"
         style="stop-color:#464646;stop-opacity:1"
         offset="0" />
      <stop
         id="stop3928"
         style="stop-color:#8c8c8c;stop-opacity:1"
         offset="0.35046947" />
      <stop
         id="stop3930"
         style="stop-color:#969696;stop-opacity:1"
         offset="0.50989443" />
      <stop
         id="stop3932"
         style="stop-color:#aaaaaa;stop-opacity:1"
         offset="0.61998242" />
      <stop
         id="stop3934"
         style="stop-color:#646464;stop-opacity:1"
         offset="1" />
    </linearGradient>
    <linearGradient
       x1="61.968769"
       y1="35.944077"
       x2="61.968769"
       y2="43.378311"
       id="linearGradient2500"
       xlink:href="#linearGradient3924"
       gradientUnits="userSpaceOnUse"
       gradientTransform="matrix(0.5790465,0,0,0.6062555,-23.900882,-3.8712552)" />
    <linearGradient
       id="linearGradient3912">
      <stop
         id="stop3914"
         style="stop-color:#787878;stop-opacity:1"
         offset="0" />
      <stop
         id="stop3916"
         style="stop-color:#bebebe;stop-opacity:1"
         offset="0.35046947" />
      <stop
         id="stop3918"
         style="stop-color:#c8c8c8;stop-opacity:1"
         offset="0.49417919" />
      <stop
         id="stop3920"
         style="stop-color:#e6e6e6;stop-opacity:1"
         offset="0.58907253" />
      <stop
         id="stop3922"
         style="stop-color:#8c8c8c;stop-opacity:1"
         offset="1" />
    </linearGradient>
    <linearGradient
       x1="361.10583"
       y1="87.050117"
       x2="361.10583"
       y2="94.396416"
       id="linearGradient2498"
       xlink:href="#linearGradient3912"
       gradientUnits="userSpaceOnUse"
       gradientTransform="matrix(0.5769671,0,0,0.6063427,-194.65125,-34.797997)" />
    <linearGradient
       id="linearGradient3342">
      <stop
         id="stop3344"
         style="stop-color:#ffffff;stop-opacity:0"
         offset="0" />
      <stop
         id="stop3346"
         style="stop-color:#ffffff;stop-opacity:1"
         offset="1" />
    </linearGradient>
    <linearGradient
       x1="15.573899"
       y1="46.971004"
       x2="23.578077"
       y2="46.971004"
       id="linearGradient2495"
       xlink:href="#linearGradient3342"
       gradientUnits="userSpaceOnUse"
       gradientTransform="matrix(0.6041001,0,0,0.4850453,-2.2435196,-1.2830676)"
       spreadMethod="reflect" />
    <linearGradient
       id="linearGradient2327">
      <stop
         id="stop2329"
         style="stop-color:#ffffff;stop-opacity:1"
         offset="0" />
      <stop
         id="stop2331"
         style="stop-color:#cccccc;stop-opacity:1"
         offset="1" />
    </linearGradient>
    <radialGradient
       cx="12.244348"
       cy="4.8630676"
       r="20.999998"
       fx="12.244348"
       fy="4.8630676"
       id="radialGradient2491"
       xlink:href="#linearGradient2327"
       gradientUnits="userSpaceOnUse"
       gradientTransform="matrix(0.6746493,9.28159e-3,-6.28149e-3,0.5188398,-1.9645574,3.278161)" />
    <linearGradient
       id="linearGradient6592-2-7">
      <stop
         id="stop6594-0-2"
         style="stop-color:#ffffff;stop-opacity:0.27450982"
         offset="0" />
      <stop
         id="stop6596-2-5"
         style="stop-color:#ffffff;stop-opacity:0"
         offset="1" />
    </linearGradient>
    <linearGradient
       x1="12.9375"
       y1="8.4375"
       x2="15.25"
       y2="19.8125"
       id="linearGradient2488"
       xlink:href="#linearGradient6592-2-7"
       gradientUnits="userSpaceOnUse"
       gradientTransform="matrix(0.5238096,0,0,0.6666661,-0.5714286,1.4e-6)" />
  </defs>
  <g
     id="layer1">
    <path
       d="M 19,22.500001 C 19,23.328428 15.865993,24 11.999999,24 C 8.1340066,24 5,23.328428 5,22.500001 C 5,21.671573 8.1340066,21 11.999999,21 C 15.865993,21 19,21.671573 19,22.500001 L 19,22.500001 z"
       id="path2589"
       style="opacity:0.3;fill:url(#radialGradient2503);fill-opacity:1;fill-rule:nonzero;stroke:none;stroke-width:0.80000001;marker:none;visibility:visible;display:inline;overflow:visible" />
    <path
       d="M 8.5,17.499134 C 8.5,17.499134 8.7272727,19.645179 8.5,20 C 8.1074638,20.612833 6.8927921,20.5 6.8927921,20.5 C 6.369978,20.56321 6.3656531,22.500859 6.8927921,22.500859 L 17.107166,22.500859 C 17.634305,22.500859 17.630089,20.562403 17.107166,20.5 C 17.107166,20.5 15.935658,20.58298 15.5,20 C 15.254189,19.671064 15.5,17.499134 15.5,17.499134 L 8.5,17.499134 L 8.5,17.499134 z"
       id="rect1789"
       style="fill:url(#linearGradient2498);fill-opacity:1;fill-rule:nonzero;stroke:url(#linearGradient2500);stroke-width:0.99827474;stroke-linecap:round;stroke-linejoin:round;marker:none;stroke-miterlimit:4;stroke-dasharray:none;stroke-dashoffset:0.50000001;stroke-opacity:1;visibility:visible;display:inline;overflow:visible;enable-background:new" />
    <path
       d="M 7.4667247,21.5 L 16.533275,21.5"
       id="path3340"
       style="fill:none;stroke:url(#linearGradient2495);stroke-width:1px;stroke-linecap:square;stroke-linejoin:miter;stroke-opacity:1" />
    <rect
       width="22.999796"
       height="15.999761"
       rx="0.51110935"
       ry="0.48484477"
       x="0.50010204"
       y="1.5001202"
       id="rect2722"
       style="fill:#1a1a1a;fill-opacity:1;stroke:#000000;stroke-width:1.00023937;stroke-linecap:round;stroke-linejoin:round;stroke-miterlimit:4;stroke-dasharray:none;stroke-dashoffset:0.50000001;stroke-opacity:1" />
    <rect
       width="20"
       height="13"
       x="2"
       y="3"
       id="rect2716"
       style="fill:url(#radialGradient2491);fill-opacity:1;fill-rule:evenodd;stroke:none;display:inline;enable-background:new" />
    <path
       d="M 0.99999996,2 L 23,2 L 23,7.333336 L 0.99999996,12 L 0.99999996,2 z"
       id="rect6588"
       style="fill:url(#linearGradient2488);fill-opacity:1;stroke:none" />
    <path
       d="M 11.750002,5.0148104 C 10.036141,5.0698682 8.900003,5.9149003 8.900003,7.657846 L 8.900003,9.023733 L 8.514285,9.023733 C 8.231276,9.023733 8,9.22361 8,9.473921 L 8,13.549812 C 8,13.800124 8.231276,14.000001 8.514285,14 L 15.492854,14 C 15.775868,14 16,13.800124 16,13.549812 L 16,9.473921 C 16,9.22361 15.775868,9.023733 15.492854,9.023733 L 15.099996,9.023733 L 15.107141,7.686891 C 15.107141,5.8367149 13.873798,5.0376459 12.007144,5.0148104 C 11.920116,5.0137393 11.83429,5.0121015 11.750002,5.0148104 z M 11.921429,6.1838445 C 11.952944,6.1831168 11.988842,6.1838445 12.021429,6.1838445 C 14.092521,6.1838445 13.933702,7.694264 13.964285,8.14434 L 13.964285,9.023733 L 10.064285,9.023733 L 10.064285,8.1516 C 10.056933,7.705098 9.935997,6.2297713 11.921429,6.1838445 z"
       id="path2086"
       style="opacity:0.69886361;fill:#888a85;fill-opacity:1;fill-rule:nonzero;stroke:none;stroke-width:1;stroke-linecap:butt;stroke-linejoin:miter;marker:none;marker-start:none;marker-mid:none;marker-end:none;stroke-miterlimit:4;stroke-dasharray:none;stroke-dashoffset:0;stroke-opacity:1;visibility:visible;display:block;overflow:visible" />
  </g>
</svg>
